src/images/logo-com-champions.svg

<?xml version="1.0" encoding="UTF-8"?>
<svg width="193px" height="50px" viewBox="0 0 193 50" version="1.1" xmlns="http://www.w3.org/2000/svg" xmlns:xlink="http://www.w3.org/1999/xlink">
    <!-- Generator: Sketch 43.2 (39069) - http://www.bohemiancoding.com/sketch -->
    <title>logo-com-champions2</title>
    <desc>Created with Sketch.</desc>
    <defs></defs>
    <g id="Page-1" stroke="none" stroke-width="1" fill="none" fill-rule="evenodd">
        <g id="logo-com-champions2" fill-rule="nonzero" fill="#231F20">
            <path d="M19.7,22.9 L19.7,9.3 L15,20.7 L10.6,20.7 L6,9.4 L6,23 L0,23 L0,0 L7.3,0 L12.8,12.7 L18.3,0 L25.6,0 L25.6,22.9 L19.7,22.9 Z" id="line1_marion_m"></path>
            <path d="M35.4,19.2 L34,22.9 L27,22.9 L36.8,0 L43.8,0 L53.2,22.9 L46,22.9 L44.7,19.2 L35.4,19.2 Z M40.1,6.7 L37.3,14.2 L42.9,14.2 L40.1,6.7 Z" id="line1_marion_a"></path>
            <path d="M65.4,16.8 L61.8,16.8 L61.8,23 L55,23 L55,0 L65.7,0 C71.8,0 75.4,2.9 75.4,8.1 C75.4,11.5 74,14 71.5,15.4 L76.1,22.9 L68.4,22.9 L65.4,16.8 Z M65.7,11.5 C67.7,11.5 68.9,10.4 68.9,8.3 C68.9,6.3 67.7,5.2 65.7,5.2 L61.8,5.2 L61.8,11.5 L65.7,11.5 Z" id="line1_marion_r"></path>
            <polygon id="line1_marion_i" points="78 22.9 78 0 84.8 0 84.8 22.9"></polygon>
            <path d="M112,11.6014738 C112,18.3014738 106.7,23.4014738 99.5,23.4014738 C92.3,23.4014738 87,18.4014738 87,11.6014738 C87,4.90147381 92.3,0.00147380794 99.5,0.00147380794 C106.7,-0.0985261921 112,4.90147381 112,11.6014738 Z M94,11.6014738 C94,15.1014738 96.6,17.6014738 99.6,17.6014738 C102.6,17.6014738 105,15.0014738 105,11.6014738 C105,8.20147381 102.6,5.60147381 99.6,5.60147381 C96.6,5.50147381 94,8.10147381 94,11.6014738 Z" id="line1_marion_o"></path>
            <polygon id="line1_marion_n" points="129.9 22.9 120.2 10.2 120.2 22.9 114 22.9 114 0 119.8 0 129.5 12.9 129.5 0 135.7 0 135.7 22.9"></polygon>
            <path d="M13.3,32.7 L10.9,35.4 C10,34.3 8.7,33.5 7.6,33.5 C5.7,33.5 4.3,35 4.3,37.1 C4.3,39.2 5.7,40.7 7.6,40.7 C8.7,40.7 10,40.1 10.9,39.1 L13.3,41.6 C11.8,43.2 9.5,44.3 7.4,44.3 C3.2,44.3 0,41.2 0,37.1 C0,33 3.2,30 7.5,30 C9.6,30.1 11.9,31.1 13.3,32.7 Z" id="line2_city_letter_c"></path>
            <polygon id="line2_city_letter_i" points="15 44 15 30 19.1 30 19.1 44"></polygon>
            <polygon id="line2_city_letter_t" points="28.2 33.3 28.2 44 24 44 24 33.3 20 33.3 20 30 32.3 30 32.3 33.3"></polygon>
            <polygon id="line2_city_letter_y" points="42.2 43.9 38.1 43.9 38.1 39.6 33 30 37.1 30 40.1 35.7 43.1 30 47.2 30 42.2 39.5"></polygon>
            <path d="M51.6612575,43.7 C49.2612575,43.7 47.6612575,41.8 48.0612575,39.4 C48.4612575,37 50.3612575,35 52.8612575,35 C55.1612575,35 56.8612575,36.9 56.4612575,39.3 C56.1612575,41.8 54.1612575,43.7 51.6612575,43.7 Z M52.7612575,36.2 C51.7612575,36.2 51.0612575,37.3 50.6612575,39.5 C50.2612575,41.8 50.6612575,42.8 51.6612575,42.8 C52.6612575,42.8 53.3612575,41.8 53.7612575,39.5 C54.2612575,37.2 53.8612575,36.2 52.7612575,36.2 Z" id="line2_of_letter_o"></path>
            <path d="M64.9,31.5 C64.5,31.5 64.2,31.1 64.1,30.8 C63.9,30.1 63.8,29.8 63.2,29.8 C62.4,29.8 62.1,30.6 61.7,33 L61.3,35.6 L63.1,35.6 L63,36.4 L61.1,36.4 L59.9,43.3 C59,48.1 57.2,49.5 55.2,49.5 C53.8,49.5 53,48.6 53,48 C53,47.4 53.4,47 54,47 C54.4,47 54.7,47.4 54.7,47.7 C54.8,48.3 55,48.7 55.7,48.7 C56.4,48.7 56.6,48.1 57,45.8 L58.7,36.4 L57.3,36.4 L57.4,35.6 L58.9,35.6 L59.3,33.4 C59.7,30.9 61.2,29 63.5,29 C65.1,29 65.9,30 65.9,30.6 C65.9,31.2 65.4,31.5 64.9,31.5 Z" id="line2_of_letter_f"></path>
            <path d="M80.3,32.6 L77.9,35.4 C77,34.3 75.7,33.5 74.6,33.5 C72.7,33.5 71.3,35 71.3,37.1 C71.3,39.2 72.7,40.7 74.6,40.7 C75.7,40.7 77,40.1 77.9,39.1 L80.3,41.6 C78.8,43.2 76.5,44.3 74.4,44.3 C70.2,44.3 67,41.2 67,37.1 C67,33 70.2,30 74.5,30 C76.7,30 78.9,31 80.3,32.6 Z" id="line2_champions_letter_c"></path>
            <polygon id="line2_champions_letter_h" points="91.1 44 91.1 38.8 86.1 38.8 86.1 44 82 44 82 30 86.1 30 86.1 35.6 91.1 35.6 91.1 30 95.2 30 95.2 44"></polygon>
            <path d="M101.1,41.8 L100.3,44 L96,44 L102,30 L106.3,30 L112.1,44 L107.7,44 L106.9,41.8 L101.1,41.8 Z M103.9,34.2 L102.2,38.8 L105.6,38.8 L103.9,34.2 Z" id="line2_champions_letter_a"></path>
            <polygon id="line2_champions_letter_m" points="125.9 44 125.9 35.7 123.1 42.6 120.4 42.6 117.6 35.7 117.6 44 114 44 114 30 118.4 30 121.8 37.7 125.2 30 129.6 30 129.6 44"></polygon>
            <path d="M137.4,30 C141,30 143.1,31.8 143.1,35 C143.1,38.3 141,40.2 137.4,40.2 L135.2,40.2 L135.2,44 L131,44 L131,30 L137.4,30 L137.4,30 Z M135.2,37 L137.2,37 C138.4,37 139.2,36.3 139.2,35.1 C139.2,33.9 138.5,33.2 137.2,33.2 L135.2,33.2 L135.2,37 Z" id="line2_champions_letter_p"></path>
            <polygon id="line2_champions_letter_i" points="144 44 144 30 148.1 30 148.1 44"></polygon>
            <path d="M165.2,37.1 C165.2,41.2 162,44.3 157.6,44.3 C153.2,44.3 150,41.3 150,37.1 C150,33 153.2,30 157.6,30 C162,30 165.2,33 165.2,37.1 Z M154.3,37.1 C154.3,39.2 155.9,40.8 157.7,40.8 C159.5,40.8 161,39.2 161,37.1 C161,35 159.5,33.5 157.7,33.5 C155.8,33.6 154.3,35 154.3,37.1 Z" id="line2_champions_letter_o"></path>
            <polygon id="line2_champions_letter_n" points="175.7 44 169.8 36.2 169.8 44 166 44 166 30 169.5 30 175.4 37.8 175.4 30 179.2 30 179.2 44"></polygon>
            <path d="M192.5,31.5108262 L191,34.7108262 C189.6,33.9108262 187.5,33.1108262 186.4,33.1108262 C185.7,33.1108262 185.2,33.3108262 185.2,33.9108262 C185.2,36.0108262 192.5,34.7108262 192.5,39.8108262 C192.5,42.8108262 189.9,44.2108262 186.7,44.2108262 C184.3,44.2108262 181.7,43.4108262 180,42.0108262 L181.6,38.9108262 C183,40.1108262 185.4,41.0108262 186.8,41.0108262 C187.7,41.0108262 188.2,40.7108262 188.2,40.1108262 C188.2,38.0108262 180.9,39.3108262 180.9,34.4108262 C180.9,31.7108262 183.2,30.0108262 186.7,30.0108262 C188.8,29.9108262 191,30.5108262 192.5,31.5108262 Z" id="line2_champions_letter_s"></path>
        </g>
    </g>
</svg>

<svg width="193" height="50" viewBox="0 0 193 50" xmlns="http://www.w3.org/2000/svg"><title>Marion: City of Champions</title><g id="logo-com-champions" fill="#231F20"><path d="M19.7 22.9V9.3L15 20.7h-4.4L6 9.4V23H0V0h7.3l5.5 12.7L18.3 0h7.3v22.9h-5.9z" id="line1_marion_m"/><path d="M35.4 20.2L34 23.9h-7L36.8 1h7l9.4 22.9H46l-1.3-3.7h-9.3zm4.7-12.5l-2.8 7.5h5.6l-2.8-7.5z" id="line1_marion_a"/><path d="M65.4 16.8h-3.6V23H55V0h10.7c6.1 0 9.7 2.9 9.7 8.1 0 3.4-1.4 5.9-3.9 7.3l4.6 7.5h-7.7l-3-6.1zm.3-5.3c2 0 3.2-1.1 3.2-3.2 0-2-1.2-3.1-3.2-3.1h-3.9v6.3h3.9z" id="line1_marion_r"/><path id="line1_marion_i" d="M78 22.9V0h6.8v22.9z"/><path d="M112 11.6015c0 6.7-5.3 11.8-12.5 11.8s-12.5-5-12.5-11.8c0-6.7 5.3-11.6 12.5-11.6 7.2-.1 12.5 4.9 12.5 11.6zm-18 0c0 3.5 2.6 6 5.6 6 3 0 5.4-2.6 5.4-6s-2.4-6-5.4-6c-3-.1-5.6 2.5-5.6 6z" id="line1_marion_o"/><path id="line1_marion_n" d="M129.9 22.9l-9.7-12.7v12.7H114V0h5.8l9.7 12.9V0h6.2v22.9z"/><path d="M13.3 31.7l-2.4 2.7c-.9-1.1-2.2-1.9-3.3-1.9-1.9 0-3.3 1.5-3.3 3.6s1.4 3.6 3.3 3.6c1.1 0 2.4-.6 3.3-1.6l2.4 2.5c-1.5 1.6-3.8 2.7-5.9 2.7-4.2 0-7.4-3.1-7.4-7.2S3.2 29 7.5 29c2.1.1 4.4 1.1 5.8 2.7z" id="line2_city_letter_c"/><path id="line2_city_letter_i" d="M15 44V30h4.1v14z"/><path id="line2_city_letter_t" d="M28.2 33.3V44H24V33.3h-4V30h12.3v3.3z"/><path id="line2_city_letter_y" d="M42.2 43.9h-4.1v-4.3L33 30h4.1l3 5.7 3-5.7h4.1l-5 9.5z"/><path d="M51.6613 43.7c-2.4 0-4-1.9-3.6-4.3.4-2.4 2.3-4.4 4.8-4.4 2.3 0 4 1.9 3.6 4.3-.3 2.5-2.3 4.4-4.8 4.4zm1.1-7.5c-1 0-1.7 1.1-2.1 3.3-.4 2.3 0 3.3 1 3.3s1.7-1 2.1-3.3c.5-2.3.1-3.3-1-3.3z" id="line2_of_letter_o"/><path d="M64.9 31.5c-.4 0-.7-.4-.8-.7-.2-.7-.3-1-.9-1-.8 0-1.1.8-1.5 3.2l-.4 2.6h1.8l-.1.8h-1.9l-1.2 6.9c-.9 4.8-2.7 6.2-4.7 6.2-1.4 0-2.2-.9-2.2-1.5s.4-1 1-1c.4 0 .7.4.7.7.1.6.3 1 1 1s.9-.6 1.3-2.9l1.7-9.4h-1.4l.1-.8h1.5l.4-2.2c.4-2.5 1.9-4.4 4.2-4.4 1.6 0 2.4 1 2.4 1.6 0 .6-.5.9-1 .9z" id="line2_of_letter_f"/><path d="M80.3 31.6l-2.4 2.8c-.9-1.1-2.2-1.9-3.3-1.9-1.9 0-3.3 1.5-3.3 3.6s1.4 3.6 3.3 3.6c1.1 0 2.4-.6 3.3-1.6l2.4 2.5c-1.5 1.6-3.8 2.7-5.9 2.7-4.2 0-7.4-3.1-7.4-7.2s3.2-7.1 7.5-7.1c2.2 0 4.4 1 5.8 2.6z" id="line2_champions_letter_c"/><path id="line2_champions_letter_h" d="M91.1 44v-5.2h-5V44H82V30h4.1v5.6h5V30h4.1v14z"/><path d="M101.1 41.8l-.8 2.2H96l6-14h4.3l5.8 14h-4.4l-.8-2.2h-5.8zm2.8-7.6l-1.7 4.6h3.4l-1.7-4.6z" id="line2_champions_letter_a"/><path id="line2_champions_letter_m" d="M125.9 44v-8.3l-2.8 6.9h-2.7l-2.8-6.9V44H114V30h4.4l3.4 7.7 3.4-7.7h4.4v14z"/><path d="M137.4 30c3.6 0 5.7 1.8 5.7 5 0 3.3-2.1 5.2-5.7 5.2h-2.2V44H131V30h6.4zm-2.2 7h2c1.2 0 2-.7 2-1.9s-.7-1.9-2-1.9h-2V37z" id="line2_champions_letter_p"/><path id="line2_champions_letter_i" d="M144 44V30h4.1v14z"/><path d="M165.2 36.1c0 4.1-3.2 7.2-7.6 7.2-4.4 0-7.6-3-7.6-7.2 0-4.1 3.2-7.1 7.6-7.1 4.4 0 7.6 3 7.6 7.1zm-10.9 0c0 2.1 1.6 3.7 3.4 3.7 1.8 0 3.3-1.6 3.3-3.7s-1.5-3.6-3.3-3.6c-1.9.1-3.4 1.5-3.4 3.6z" id="line2_champions_letter_o"/><path id="line2_champions_letter_n" d="M175.7 44l-5.9-7.8V44H166V30h3.5l5.9 7.8V30h3.8v14z"/><path d="M192.5 31.5108l-1.5 3.2c-1.4-.8-3.5-1.6-4.6-1.6-.7 0-1.2.2-1.2.8 0 2.1 7.3.8 7.3 5.9 0 3-2.6 4.4-5.8 4.4-2.4 0-5-.8-6.7-2.2l1.6-3.1c1.4 1.2 3.8 2.1 5.2 2.1.9 0 1.4-.3 1.4-.9 0-2.1-7.3-.8-7.3-5.7 0-2.7 2.3-4.4 5.8-4.4 2.1-.1 4.3.5 5.8 1.5z" id="line2_champions_letter_s"/></g></svg>
